public/logo.svg

<svg xmlns="http://www.w3.org/2000/svg" width="400" height="432.72727273"><g fill="#04C8C8"><path d="M117.455 79.683C106.226 80.982 96 87.37 96 93.084c0 17.493 21.343 37.021 54.348 49.725 19.468 7.494 40.401 13.468 61.798 17.637l4.328.844-3.827 5.082c-6.399 8.5-12.47 15.224-22.998 25.475-26.008 25.324-45.439 48.431-59.91 71.244-7.289 11.491-13.578 22.822-14.84 26.737-17.943 55.668-.907 96.631 48.59 116.829 37.412 15.267 88.508 8.517 131.634-17.387 36.981-22.213 71.09-60.171 84.631-94.179 3.814-9.578 5.62-17.42 2.387-10.364-16.145 35.242-32.571 55.677-60.686 75.499-30.209 21.298-63.028 29.464-97.637 24.294-24.897-3.72-39.954-18.323-44.018-42.691-3.016-18.091 6.678-59.414 19.539-83.284 2.348-4.359 7.86-14.047 10.24-18 15.208-25.256 39.733-41.574 72.7-48.371 29.836-6.152 38.735-12.156 37.988-25.629-.349-6.285-1.101-7.604-8.351-14.633-11.303-10.958-25.243-17.957-43.734-21.957l-4.727-1.022-17.952-.122-17.952-.122-3.503-2.649c-25.394-19.202-54.029-36.295-71.503-42.682-8.605-3.146-24.91-4.853-35.09-3.675m33.636 27.775c8.063 1.827 25.032 7.924 31.074 11.166 15.802 8.48 27.588 18.096 33.263 27.142l.994 1.585-2.302-.249c-9.542-1.032-25.229-5.979-44.12-13.915-19.104-8.025-31.818-17.539-31.818-23.809 0-3.004 4.903-3.734 12.909-1.92"/><path d="M188.182 19.284c-29.63 3.179-50.302 9.987-74.583 24.562-60.805 36.5-97.081 109.332-92.54 185.792.487 8.192 1.604 14.432 4.946 27.635 12.4 48.979 34.064 85.848 64.277 109.39 3.871 3.017 13.351 9.461 13.58 9.232.079-.078-.821-2.091-1.999-4.473-9.639-19.496-11.997-41.294-7.117-65.786 1.272-6.385 3.32-13.857 5.174-18.883l1.063-2.884-1.972-4.345c-23.458-51.666-21.201-98.442 6.72-139.33l3.468-5.079-1.016-.739C78.02 112.431 71.617 86.658 93.091 73.618c21.142-12.838 46.39-12.292 74.077 1.602l3.565 1.789 3.452-1.624c45.545-21.433 93.003-21.78 135.815-.993 34.39 16.697 59.827 43.538 72.86 76.881 2.58 6.6 1.761 2.807-1.28-5.929-22.293-64.048-80.838-114.192-145.762-124.846-12.425-2.039-34.662-2.606-47.636-1.214" fill-rule="evenodd"/></g></svg>

<svg xmlns="http://www.w3.org/2000/svg" width="400" height="432.7272727272727" viewBox="0, 0, 400,432.7272727272727">
  <g>
     <path d="M117.455 79.683 C 106.226 80.982,96.000 87.370,96.000 93.084 C 96.000 110.577,117.343 130.105,150.348 142.809 C 169.816 150.303,190.749 156.277,212.146 160.446 L 216.474 161.290 212.647 166.372 C 206.248 174.872,200.177 181.596,189.649 191.847 C 163.641 217.171,144.210 240.278,129.739 263.091 C 122.450 274.582,116.161 285.913,114.899 289.828 C 96.956 345.496,113.992 386.459,163.489 406.657 C 200.901 421.924,251.997 415.174,295.123 389.270 C 332.104 367.057,366.213 329.099,379.754 295.091 C 383.568 285.513,385.374 277.671,382.141 284.727 C 365.996 319.969,349.570 340.404,321.455 360.226 C 291.246 381.524,258.427 389.690,223.818 384.520 C 198.921 380.800,183.864 366.197,179.800 341.829 C 176.784 323.738,186.478 282.415,199.339 258.545 C 201.687 254.186,207.199 244.498,209.579 240.545 C 224.787 215.289,249.312 198.971,282.279 192.174 C 312.115 186.022,321.014 180.018,320.267 166.545 C 319.918 160.260,319.166 158.941,311.916 151.912 C 300.613 140.954,286.673 133.955,268.182 129.955 L 263.455 128.933 245.503 128.811 L 227.551 128.689 224.048 126.040 C 198.654 106.838,170.019 89.745,152.545 83.358 C 143.940 80.212,127.635 78.505,117.455 79.683 M151.091 107.458 C 159.154 109.285,176.123 115.382,182.165 118.624 C 197.967 127.104,209.753 136.720,215.428 145.766 L 216.422 147.351 214.120 147.102 C 204.578 146.070,188.891 141.123,170.000 133.187 C 150.896 125.162,138.182 115.648,138.182 109.378 C 138.182 106.374,143.085 105.644,151.091 107.458 " stroke="none" fill="#04C8C8"></path>
     <path d="M188.182 19.284 C 158.552 22.463,137.880 29.271,113.599 43.846 C 52.794 80.346,16.518 153.178,21.059 229.638 C 21.546 237.830,22.663 244.070,26.005 257.273 C 38.405 306.252,60.069 343.121,90.282 366.663 C 94.153 369.680,103.633 376.124,103.862 375.895 C 103.941 375.817,103.041 373.804,101.863 371.422 C 92.224 351.926,89.866 330.128,94.746 305.636 C 96.018 299.251,98.066 291.779,99.920 286.753 L 100.983 283.869 99.011 279.524 C 75.553 227.858,77.810 181.082,105.731 140.194 L 109.199 135.115 108.183 134.376 C 78.020 112.431,71.617 86.658,93.091 73.618 C 114.233 60.780,139.481 61.326,167.168 75.220 L 170.733 77.009 174.185 75.385 C 219.730 53.952,267.188 53.605,310.000 74.392 C 344.390 91.089,369.827 117.930,382.860 151.273 C 385.440 157.873,384.621 154.080,381.580 145.344 C 359.287 81.296,300.742 31.152,235.818 20.498 C 223.393 18.459,201.156 17.892,188.182 19.284 " stroke="none" fill="#04C8C8" fill-rule="evenodd"></path>
  </g>
</svg>
